logos/kotlin.svg

<?xml version="1.0" encoding="UTF-8"?>
<svg width="512px" height="112px" viewBox="0 0 512 112" version="1.1" xmlns="http://www.w3.org/2000/svg" xmlns:xlink="http://www.w3.org/1999/xlink" preserveAspectRatio="xMidYMid">
    <title>Kotlin</title>
    <defs>
        <linearGradient x1="99.9909179%" y1="0.0292854617%" x2="0.00995772309%" y2="99.9702373%" id="linearGradient-1">
            <stop stop-color="#E44857" offset="0.3435144%"></stop>
            <stop stop-color="#C711E1" offset="46.89%"></stop>
            <stop stop-color="#7F52FF" offset="100%"></stop>
        </linearGradient>
    </defs>
    <g>
        <polygon fill="url(#linearGradient-1)" points="105.092357 109.339787 0 109.339787 0 4.28948395 105.092357 4.28948395 52.5461784 56.7936085"></polygon>
        <path d="M269.144091,30.6361672 C276.398365,30.6361672 283.316209,32.6126941 289.24579,35.9139146 C295.175371,39.1941082 299.801285,44.1354255 303.060452,50.0860331 C306.361672,56.352044 308.338199,63.2698882 308.338199,70.8395658 C308.338199,78.4092433 306.698102,85.3270875 303.396882,91.5930984 C300.095661,97.5226791 295.490774,102.463996 289.561193,105.765217 C283.631613,109.402868 276.713768,111.042964 269.144091,111.042964 C261.574413,111.042964 254.656569,109.066437 248.726988,105.765217 C242.460977,102.463996 237.85609,97.5226791 234.55487,91.5930984 C231.253649,85.6635176 229.613552,78.4092433 229.613552,70.8395658 C229.613552,63.2698882 231.253649,56.352044 234.55487,50.0860331 C237.85609,44.1564524 242.797408,39.5515652 248.726988,35.9139146 C254.656569,32.276264 261.574413,30.6361672 269.144091,30.6361672 Z M232.26294,3.95305383 L184.489863,55.0063236 L232.914773,109.339787 L211.509407,109.339787 L165.712858,58.6019204 L165.712858,109.339787 L148.912379,109.339787 L148.912379,4.28948395 L165.712858,4.28948395 L165.712858,52.7143934 L211.172977,3.95305383 L232.26294,3.95305383 Z M268.849714,45.7334686 C264.244827,45.7334686 260.291773,46.721732 256.990553,49.034689 C253.689332,51.011216 251.060972,53.9760063 249.084445,57.9290602 C247.107918,61.5667108 246.119655,66.1715979 246.119655,71.1129152 C246.119655,76.0542325 246.771488,80.3437165 248.748015,84.2967703 C250.724542,87.913394 253.352902,90.8781844 256.654123,93.1911414 C260.270747,95.5040985 264.244827,96.4923619 268.513284,96.4923619 C272.781741,96.4923619 276.734795,95.5040985 280.036016,93.1911414 C283.337236,91.2146145 285.965596,88.2498241 287.942123,84.2967703 C289.91865,80.3437165 290.906914,76.0542325 290.906914,71.1129152 C290.906914,66.1715979 290.25508,61.882114 288.278553,57.9290602 C286.302027,54.3124364 283.673666,51.3476461 280.372446,49.034689 C277.092252,46.721732 273.139198,45.7334686 268.849714,45.7334686 Z M342.296614,13.1838551 L326.147968,13.1838551 L326.147968,26.3677101 C326.147968,28.3442371 325.811538,29.9843339 324.507871,30.9725973 C323.519608,31.9608608 321.879511,32.6126941 319.902984,32.6126941 L311.996876,32.6126941 L311.996876,46.4483825 L325.832565,46.4483825 L325.832565,87.9554478 C325.832565,92.2449317 326.820828,96.1979856 328.460925,99.4781792 C330.101022,102.7794 332.750409,105.40776 336.030603,107.047857 C339.331823,109.024384 342.948447,109.676217 347.553334,109.676217 L360.064329,109.676217 L360.064329,95.1886952 L350.833528,95.1886952 C348.520571,95.1886952 346.544044,94.5368619 344.903947,92.560335 C343.579253,90.9202382 342.59099,88.6072811 342.59099,85.9789209 L342.59099,46.4483825 L360.379732,46.4483825 L360.379732,32.6126941 L342.59099,32.6126941 L342.59099,13.1838551 L342.296614,13.1838551 Z M372.932781,0 L389.396829,0 L389.396829,109.339787 L372.932781,109.339787 L372.932781,0 Z M408.173835,0.336430113 L424.974314,0.336430113 L424.974314,17.473339 L408.173835,17.473339 L408.173835,0.336430113 Z M408.173835,32.6126941 L424.637884,32.6126941 L424.637884,109.65519 L408.173835,109.65519 L408.173835,32.6126941 Z M508.661305,45.123689 C506.348348,40.5188018 503.068154,36.8811512 498.77867,34.589221 C494.489186,31.9608608 489.547869,30.6361672 483.954718,30.6361672 C478.025138,30.6361672 472.74739,32.276264 468.142503,34.9256512 C464.525879,37.2386082 461.561089,40.5188018 459.248132,44.1564524 L459.248132,32.2972909 L443.435916,32.2972909 L443.435916,109.339787 L459.899965,109.339787 L459.899965,66.1715979 C459.899965,61.882114 460.551798,58.2654903 462.212922,54.9642698 C463.853019,51.6630493 466.165976,49.3711192 468.794336,47.3945922 C471.759127,45.7544954 475.060347,44.766232 479.013401,44.766232 C482.630025,44.766232 485.279412,45.4180653 487.907772,47.079189 C490.536132,48.7403127 492.197256,50.6958127 493.500923,53.3451999 C494.825616,55.9735601 495.47745,59.2747806 495.47745,62.8914043 L495.47745,109.003357 L511.941498,109.003357 L511.941498,60.9148774 C512.298955,55.0063236 510.995289,49.749603 508.661305,45.123689 Z" fill="#000000"></path>
    </g>
</svg>

<svg preserveAspectRatio="xMidYMid" viewBox="0 0 512 112" xmlns="http://www.w3.org/2000/svg">
  <defs>
    <linearGradient id="kotlin_svg__a" x1="99.991%" x2=".01%" y1=".029%" y2="99.97%">
      <stop offset=".344%" stop-color="#E44857"/>
      <stop offset="46.89%" stop-color="#C711E1"/>
      <stop offset="100%" stop-color="#7F52FF"/>
    </linearGradient>
  </defs>
  <path fill="url(#kotlin_svg__a)" d="M105.092 109.34H0V4.29h105.092L52.546 56.793z"/>
  <path d="M269.144 30.636c7.254 0 14.172 1.977 20.102 5.278 5.93 3.28 10.555 8.221 13.814 14.172 3.302 6.266 5.278 13.184 5.278 20.754 0 7.57-1.64 14.487-4.941 20.753-3.301 5.93-7.906 10.871-13.836 14.172-5.93 3.638-12.847 5.278-20.417 5.278-7.57 0-14.487-1.977-20.417-5.278-6.266-3.301-10.87-8.242-14.172-14.172-3.301-5.93-4.941-13.184-4.941-20.753 0-7.57 1.64-14.488 4.94-20.754 3.302-5.93 8.243-10.534 14.173-14.172s12.847-5.278 20.417-5.278ZM232.263 3.953 184.49 55.006l48.425 54.334h-21.406l-45.796-50.738v50.738h-16.8V4.29h16.8v48.424l45.46-48.76h21.09Zm36.587 41.78c-4.605 0-8.558.989-11.86 3.302-3.3 1.976-5.929 4.941-7.906 8.894-1.976 3.638-2.964 8.243-2.964 13.184 0 4.941.651 9.23 2.628 13.184 1.977 3.616 4.605 6.581 7.906 8.894 3.617 2.313 7.59 3.301 11.86 3.301 4.268 0 8.22-.988 11.522-3.3 3.301-1.977 5.93-4.942 7.906-8.895 1.977-3.953 2.965-8.243 2.965-13.184 0-4.941-.652-9.23-2.628-13.184-1.977-3.617-4.605-6.581-7.907-8.894-3.28-2.313-7.233-3.302-11.522-3.302Zm73.447-32.55h-16.149v13.185c0 1.976-.336 3.616-1.64 4.605-.988.988-2.628 1.64-4.605 1.64h-7.906v13.835h13.836v41.507c0 4.29.988 8.243 2.628 11.523a16.802 16.802 0 0 0 7.57 7.57c3.3 1.976 6.917 2.628 11.522 2.628h12.511V95.19h-9.23c-2.313 0-4.29-.652-5.93-2.629a10.552 10.552 0 0 1-2.313-6.581V46.45h17.789V32.612h-17.79v-19.43h-.294ZM372.933 0h16.464v109.34h-16.464V0Zm35.24.336h16.801v17.137h-16.8V.336Zm0 32.277h16.465v77.042h-16.464V32.613Zm100.488 12.51c-2.313-4.604-5.593-8.242-9.882-10.534-4.29-2.628-9.231-3.953-14.824-3.953-5.93 0-11.208 1.64-15.812 4.29-3.617 2.313-6.582 5.593-8.895 9.23V32.297h-15.812v77.043H459.9V66.172c0-4.29.652-7.907 2.313-11.208 1.64-3.301 3.953-5.593 6.581-7.57 2.965-1.64 6.266-2.628 10.22-2.628 3.616 0 6.265.652 8.894 2.313 2.628 1.661 4.29 3.617 5.593 6.266 1.325 2.629 1.976 5.93 1.976 9.546v46.112h16.464V60.915c.358-5.909-.946-11.165-3.28-15.791Z"/>
</svg>
